app/images/icons/logo.svg

<svg width="66" height="16" viewBox="0 0 66 16" fill="none" xmlns="http://www.w3.org/2000/svg">
<path fill-rule="evenodd" clip-rule="evenodd" d="M3.5175 14.238C4.61651 14.882 5.90099 15.204 7.371 15.204C8.82701 15.204 10.108 14.882 11.214 14.238C12.32 13.594 13.181 12.7015 13.797 11.5605C14.413 10.4195 14.721 9.10001 14.721 7.602C14.721 6.10399 14.413 4.78451 13.797 3.6435C13.181 2.50249 12.32 1.61 11.214 0.966C10.108 0.321997 8.82701 0 7.371 0C5.90099 0 4.61651 0.321997 3.5175 0.966C2.41849 1.61 1.5575 2.50249 0.9345 3.6435C0.311497 4.78451 0 6.10399 0 7.602C0 9.10001 0.311497 10.4195 0.9345 11.5605C1.5575 12.7015 2.41849 13.594 3.5175 14.238ZM10.7205 11.403C9.8875 12.327 8.77101 12.789 7.371 12.789C5.97099 12.789 4.851 12.327 4.011 11.403C3.171 10.479 2.751 9.21201 2.751 7.602C2.751 5.99199 3.171 4.725 4.011 3.801C4.851 2.877 5.97099 2.415 7.371 2.415C8.77101 2.415 9.8875 2.877 10.7205 3.801C11.5535 4.725 11.97 5.99199 11.97 7.602C11.97 9.21201 11.5535 10.479 10.7205 11.403ZM17.094 0.252H22.491C23.667 0.252 24.6365 0.451498 25.3995 0.8505C26.1625 1.2495 26.733 1.7885 27.111 2.4675C27.489 3.1465 27.678 3.899 27.678 4.725C27.678 5.621 27.4435 6.44 26.9745 7.182C26.5055 7.924 25.774 8.463 24.78 8.799L27.825 14.952H24.738L22.008 9.156H19.782V14.952H17.094V0.252ZM22.323 7.182H19.782V2.499H22.302C23.226 2.499 23.8945 2.709 24.3075 3.129C24.7205 3.549 24.927 4.109 24.927 4.809C24.927 5.523 24.717 6.097 24.297 6.531C23.877 6.965 23.219 7.182 22.323 7.182ZM30.177 0.252H39.774V2.415H32.865V6.447H39.144V8.547H32.865V12.789H39.774V14.952H30.177V0.252ZM48.216 0.252H42.315V14.952H48.426C49.966 14.952 51.156 14.574 51.996 13.818C52.836 13.062 53.256 12.103 53.256 10.941C53.256 10.059 52.983 9.2855 52.437 8.6205C51.891 7.9555 51.198 7.539 50.358 7.371C51.072 7.175 51.6775 6.8005 52.1745 6.2475C52.6715 5.6945 52.92 4.956 52.92 4.032C52.92 2.92599 52.5175 2.0195 51.7125 1.3125C50.9075 0.605497 49.742 0.252 48.216 0.252ZM45.003 6.426H47.817C48.573 6.426 49.154 6.251 49.56 5.901C49.966 5.551 50.169 5.054 50.169 4.41C50.169 3.794 49.9695 3.3075 49.5705 2.9505C49.1715 2.5935 48.573 2.415 47.775 2.415H45.003V6.426ZM48.006 12.768H45.003V8.442H47.964C48.748 8.442 49.371 8.638 49.833 9.03C50.295 9.422 50.526 9.961 50.526 10.647C50.526 11.319 50.3055 11.8405 49.8645 12.2115C49.4235 12.5825 48.804 12.768 48.006 12.768ZM55.566 0.252H58.254V14.952H55.566V0.252ZM61.6401 0.162109C61.7769 0.162109 61.8949 0.211751 61.9941 0.311035C62.0934 0.41032 62.1431 0.529947 62.1431 0.669922C62.1431 0.803386 62.0942 0.919759 61.9966 1.01904C61.8989 1.11833 61.7817 1.16797 61.645 1.16797C61.505 1.16797 61.3854 1.11833 61.2861 1.01904C61.1868 0.919759 61.1372 0.800131 61.1372 0.660156C61.1372 0.526692 61.1868 0.41032 61.2861 0.311035C61.3854 0.211751 61.5034 0.162109 61.6401 0.162109ZM64.5259 0.162109C64.6659 0.162109 64.7822 0.209309 64.875 0.303711C64.9678 0.398112 65.0142 0.516926 65.0142 0.660156C65.0142 0.803386 64.9645 0.923828 64.8652 1.02148C64.766 1.11914 64.6447 1.16797 64.5015 1.16797C64.355 1.16797 64.2362 1.12402 64.145 1.03613C64.0539 0.948242 64.0083 0.832683 64.0083 0.689453C64.0083 0.542968 64.0579 0.418458 64.1572 0.315918C64.2565 0.213378 64.3794 0.162109 64.5259 0.162109ZM62.0015 3.14307C61.9038 3.04704 61.785 2.99902 61.645 2.99902C61.5018 2.99902 61.3822 3.04704 61.2861 3.14307C61.1901 3.2391 61.1421 3.3571 61.1421 3.49707C61.1421 3.6403 61.1909 3.76074 61.2886 3.8584C61.3862 3.95606 61.505 4.00488 61.645 4.00488C61.785 4.00488 61.9038 3.95524 62.0015 3.85596C62.0991 3.75667 62.1479 3.63542 62.1479 3.49219C62.1479 3.35547 62.0991 3.2391 62.0015 3.14307ZM64.4917 3.00391C64.6317 2.9974 64.7521 3.04297 64.853 3.14062C64.9539 3.23828 65.0044 3.35872 65.0044 3.50195C65.0044 3.64518 64.9539 3.76562 64.853 3.86328C64.7521 3.96094 64.6284 4.00977 64.4819 4.00977C64.1597 4.00977 63.9985 3.84863 63.9985 3.52637C63.9985 3.37988 64.0441 3.25781 64.1353 3.16016C64.2264 3.0625 64.3452 3.01042 64.4917 3.00391Z" fill="#262626"/>
</svg>

<svg width="66" height="16" fill="none" xmlns="http://www.w3.org/2000/svg"><path fill-rule="evenodd" clip-rule="evenodd" d="M3.518 14.238c1.099.644 2.383.966 3.853.966 1.456 0 2.737-.322 3.843-.966a6.743 6.743 0 002.583-2.678c.616-1.14.924-2.46.924-3.958 0-1.498-.308-2.817-.924-3.959A6.743 6.743 0 0011.214.966C10.108.322 8.827 0 7.371 0c-1.47 0-2.754.322-3.854.966A6.838 6.838 0 00.934 3.644C.311 4.784 0 6.104 0 7.602 0 9.1.311 10.419.934 11.56a6.838 6.838 0 002.583 2.678zm7.202-2.835c-.833.924-1.949 1.386-3.349 1.386-1.4 0-2.52-.462-3.36-1.386-.84-.924-1.26-2.191-1.26-3.801 0-1.61.42-2.877 1.26-3.801.84-.924 1.96-1.386 3.36-1.386s2.516.462 3.35 1.386c.832.924 1.249 2.191 1.249 3.801 0 1.61-.417 2.877-1.25 3.801zM17.095.252h5.397c1.176 0 2.146.2 2.909.599.763.399 1.333.938 1.711 1.616.378.68.567 1.432.567 2.258 0 .896-.235 1.715-.704 2.457-.468.742-1.2 1.281-2.194 1.617l3.045 6.153h-3.087l-2.73-5.796h-2.226v5.796h-2.688V.252zm5.229 6.93h-2.541V2.499h2.52c.924 0 1.593.21 2.006.63.413.42.619.98.619 1.68 0 .714-.21 1.288-.63 1.722-.42.434-1.078.651-1.974.651zm7.854-6.93h9.597v2.163h-6.909v4.032h6.279v2.1h-6.279v4.242h6.909v2.163h-9.597V.252zm18.039 0h-5.901v14.7h6.111c1.54 0 2.73-.378 3.57-1.134.84-.756 1.26-1.715 1.26-2.877 0-.882-.273-1.655-.819-2.32a3.505 3.505 0 00-2.079-1.25 3.718 3.718 0 001.817-1.124c.497-.553.745-1.291.745-2.215 0-1.106-.403-2.013-1.208-2.72-.805-.707-1.97-1.06-3.496-1.06zm-3.213 6.174h2.814c.756 0 1.337-.175 1.743-.525.406-.35.609-.847.609-1.491 0-.616-.2-1.103-.598-1.46-.4-.357-.998-.535-1.796-.535h-2.772v4.011zm3.003 6.342h-3.003V8.442h2.961c.784 0 1.407.196 1.869.588.462.392.693.931.693 1.617 0 .672-.22 1.194-.662 1.564-.44.371-1.06.557-1.858.557zM55.566.252h2.688v14.7h-2.688V.252zm6.074-.09c.137 0 .255.05.354.149.1.1.15.219.15.359 0 .133-.05.25-.147.349a.476.476 0 01-.352.149.49.49 0 01-.359-.149.49.49 0 01-.149-.359c0-.133.05-.25.15-.349.098-.1.216-.149.353-.149zm2.886 0a.47.47 0 01.349.142c.093.094.14.213.14.356s-.05.264-.15.361a.499.499 0 01-.364.147.492.492 0 01-.356-.132.46.46 0 01-.137-.347.517.517 0 01.518-.527zm-2.524 2.981A.49.49 0 0061.645 3a.487.487 0 00-.359.144.481.481 0 00-.144.354.49.49 0 00.147.361.485.485 0 00.356.147c.14 0 .259-.05.356-.149a.5.5 0 00.147-.364.472.472 0 00-.147-.349zm2.49-.14c.14-.006.26.04.361.138.1.097.151.218.151.36 0 .144-.05.265-.151.362a.513.513 0 01-.371.147c-.322 0-.483-.161-.483-.484a.497.497 0 01.493-.522z" fill="#262626"/></svg>
